X: 5
T: George White's Favorite
R: reel
M: 4/4
L: 1/8
K: Gmaj
|:Bd | eB B2 eBdB | AGAB GE D2 | GB B2 GB B2 | (3efe dB A2 Bd |
eB B2 eBdB | AGAB GE D2 | GABd gedB | AGAB G2 :||
|: gede gaba | g3a ge (d2 | d)ega bgag | eaag a2 ga |
bgeg d3e | gede gaba | gfgd (3efg dB | AGAB G2 :||


Tune 718	Setting 24141

